outputs/icons/social/point_gift_round.svg

<svg xmlns="http://www.w3.org/2000/svg" width="1200" height="1200" fill="none"><path fill="#000" fill-rule="evenodd" d="M564.19 118.044c13.22 15.258 25.195 32.145 35.81 49.411 10.62-17.266 22.595-34.152 35.815-49.411 20.33-23.466 46.33-46.266 78.005-58.646 33.605-13.133 71.26-13.467 108.54 5.174 68.45 34.228 103.405 115.094 66.895 185.427H975c41.42 0 75 33.578 75 75s-33.58 75-75 75H225c-41.422 0-75-33.579-75-75s33.578-75 75-75h85.746c-36.512-70.332-1.558-151.199 66.896-185.427 37.279-18.641 74.933-18.307 108.539-5.174 31.679 12.38 57.674 35.179 78.009 58.646m-162.753 89.214c9.15 14.234 42.369 39.89 126.408 35.536-11.015-21.008-24.37-42.109-39.235-59.268-14.619-16.872-27.97-26.744-38.83-30.988-8.93-3.49-16.999-3.733-27.415 1.475-27.836 13.919-30.403 38.505-20.928 53.245m309.953-23.732c-14.865 17.158-28.22 38.26-39.235 59.268 84.04 4.354 117.26-21.302 126.41-35.535 9.475-14.74 6.905-39.326-20.93-53.246-10.415-5.208-18.485-4.965-27.415-1.475-10.86 4.243-24.21 14.115-38.83 30.988M960 450H240c-49.5 0-90 39-90 86.665v476.67C150 1061 190.5 1100 240 1100h720c49.5 0 90-39 90-86.665v-476.67C1050 489 1009.5 450 960 450M650 550H550v450h100z"/></svg>

<svg width="1200" height="1200" viewBox="0 0 1200 1200" fill="none" xmlns="http://www.w3.org/2000/svg"><path fill-rule="evenodd" d="M564.19 118.044C577.41 133.302 589.385 150.189 600 167.455C610.62 150.189 622.595 133.303 635.815 118.044C656.145 94.578 682.145 71.778 713.82 59.398C747.425 46.265 785.08 45.931 822.36 64.572C890.81 98.8 925.765 179.666 889.255 249.999H975C1016.42 249.999 1050 283.577 1050 324.999C1050 366.42 1016.42 399.999 975 399.999H225C183.578 399.999 150 366.42 150 324.999C150 283.577 183.578 249.999 225 249.999H310.746C274.234 179.667 309.188 98.8 377.642 64.572C414.921 45.931 452.575 46.265 486.181 59.398C517.86 71.778 543.855 94.577 564.19 118.044ZM401.437 207.258C410.587 221.492 443.806 247.148 527.845 242.794C516.83 221.786 503.475 200.685 488.61 183.526C473.991 166.654 460.64 156.782 449.78 152.538C440.85 149.048 432.781 148.805 422.365 154.013C394.529 167.932 391.962 192.518 401.437 207.258ZM711.39 183.526C696.525 200.684 683.17 221.786 672.155 242.794C756.195 247.148 789.415 221.492 798.565 207.259C808.04 192.519 805.47 167.933 777.635 154.013C767.22 148.805 759.15 149.048 750.22 152.538C739.36 156.781 726.01 166.653 711.39 183.526Z" fill="#1D1E23"/><path fill-rule="evenodd" d="M960 450H735H465H240C190.5 450 150 489 150 536.665V1013.335C150 1061 190.5 1100 240 1100H960C1009.5 1100 1050 1061 1050 1013.335V536.665C1050 489 1009.5 450 960 450ZM650 550H550V1000H650V550Z" fill="#1D1E23"/></svg>
